X: 24
T: Smash the Windows
R: Jig
N: page 7
N: heptatonic
N: "Collected by J.O'Neill"
B: O'Neill's 965
M: 6/8
L: 1/8
K: D
A|"D"DED F2A|def "A"ecA|"G"G2B "D/f+" F2A|"Em"E2F "A7"GFE|\
"D"DED "c#"F2A|"Bm"def "A"ecA|"G"Bgf "A7"edc|"D"d3 d2:|
f/g/|"D"a2f d2f|A2a agf|"Em"g2e e2c|"A7"A2a gfe|\
"D"f2d "A7/e"g2e|"D/f+"a2f "G"bag|"D/a"fed "A7"edc|"D"d3 "A7"dfg|
"D"agf fed|Adf agf|"Em"gfe edc|"A7"Ace gfe|\
"D"fed "A7/e"gfe|"D/f+"agf "G"bag|"D/a"fed "A7"edc|"D"d3 d2|]
